svg/furkot/icomoon/box-remove.svg

<svg xmlns="http://www.w3.org/2000/svg" viewBox="0 0 512 512"><path d="M416 32H96L0 128V464C0 472.84 7.16 480 16 480H496C504.84 480 512 472.84 512 464V128L416 32ZM320 320V416H192V320H96L256 192 416 320H320ZM77.256 96L109.256 64H402.744L434.744 96H77.256Z"/></svg>

<svg viewBox="0 0 512 512" xmlns="http://www.w3.org/2000/svg"><path d="m416 32h-320l-96 96v336c0 8.84 7.16 16 16 16h480c8.84 0 16-7.16 16-16v-336zm-96 288v96h-128v-96h-96l160-128 160 128zm-242.744-224 32-32h293.488l32 32z"/></svg>
